X:1
T:Title
%%score ( 1 2 ) { 3 | 4 }
L:1/8
Q:1/4=100
M:4/4
K:G
V:1 treble nm="Grand Piano, Piano"
V:2 treble 
V:3 bass nm="Grand Piano, Piano"
V:4 bass 
V:1
 [DB]4 [Ec]2 [DB]2 | [EA]3 E [EA]4 | G2 F2 [CE]2 [CF]2 | G4 D4 | [DB]4 [Ec]2 [DB]2 | %5
w: 1.~Sa vior,~ Thy~|dy ing~ love~|Thou~ * gav est~|me,~ *|Nor~ should~ I~|
 [EA]3 E [EA]4 | G2 F2 [GB]3 [FA] | [DG]8 | [FA]4 [FA]2 [GB]2 | [Ac]3 [GB] [FA]4 | %10
w: aught~ with hold,~|Dear~ * Lord,~ from~|Thee:~|In~ love~ my~|soul~ would~ bow,~|
 [DB]4 [DB]2 [Dc]2 | [Gd]3 [Dc] [DB]4 | [Gd]4 [Dc]2 [DB]2 | [EA]3 [EB] [Ec]4 | G2 F2 [GB]3 [FA] | %15
w: My~ heart~ ful|fill~ its~ vow,~|Some~ off' ring~|bring~ Thee~ now,~|Some * thing~ for~|
 [DG]8 |] %16
w: Thee.~|
V:2
 x8 | x8 | D4 z4 | B,8 | x8 | x8 | D4 z4 | x8 | x8 | x8 | x8 | x8 | x8 | x8 | D4 z4 | x8 |] %16
V:3
 G,4 G,2 G,2 | C3 C C4 | B,2 A,2 G,2 A,2 | G,8 | G,4 G,2 G,2 | C3 C C4 | B,2 A,2 D3 C | B,8 | %8
 D4 D2 D2 | D3 D D4 | G,4 G,2 A,2 | B,3 A, G,4 | B,4 A,2 G,2 | A,3 ^G, A,4 | B,2 A,2 D3 C | B,8 |] %16
V:4
 z8 | C,3 C, C,4 | D,4 D,2 D,2 | G,,8 | z8 | C,3 C, C,4 | D,4 D,3 D, | G,8 | D,4 D,2 D,2 | %9
 D,3 D, D,4 | z4 z2 G,2 | G,3 G, z4 | G,4 F,2 z2 | C,3 B,, A,,4 | D,4 D,3 D, | G,,8 |] %16

